X:789
T:Perthshire Volunteers
R:Strathspey
B:The Athole Collection
M:C
L:1/8
K:A
A|E>A c/d/e c2 A>c|d>B dcBA Gd|c>A c/d/e c2 A<c|d>fe>d c<AA:|
||g|a>e a/g/f/e/ a2 e<c|d>B d/c/B/A/ Gg|a>e a/g/f/e/ a2 e<c|d>B d/c/B/A/
E<AA>d|
c>eG>e F>dE>c|d>B d/c/B/A/ Gd|c>ed>f e<age c<AA|]
